X:1
T:Mazurka
T:Juan Alais (1844 - 1914)
T:No.1, Op.1 "Seis Piezas Faciles"
%%score ( 1 2 3 )
L:1/8
Q:1/4=108
M:3/4
K:C
V:1 treble-8 nm="Guitare classique"
V:2 treble-8 
V:3 treble-8 
V:1
"_" [Ace]>c A2 [Adf]2 | [Ace]>c A2 a2 | !3!^g>e !1!d2 !4!b2 | !1!a>e !1!c2 A2 | %4
"_" [cea]>^g a2 [G^ce]2 | g2 f2 f2 | [^GBe]f ed cB | A2"^₵5" [cea]2 z2!fine! :: %8
"_" g^g !3!a2 !1!f2 | f2 e2 e2 | e2 !4!d2 d2 | fe [ce]2 [ce]2 | g^g a2 f2 | f2 e2 e2 | %14
"_" cB c2 d2 | [^GBe]2"^Hr.12" e'2 z2!D.C.! :| %16
V:2
 A,2 z2 A,2 | A,2 z2 A,2 | E,2 z2 E,2 | A,2 z2 z2 | A,2 z2 A,2 | D6 | E,4 E,2 | A,2 A,2 z2 :: D6 | %9
 !3!C6 | !2!B,6 | C6 | D6 | C6 | !1!F,2 x4 | E,2 x2 x2 :| %16
V:3
 x6 | x6 | x6 | x6 | x6 | x2 [Ad]2 [Ad]2 | x6 | x6 :: x2 [GB]2 [GB]2 | x2 [Gc]2 [Gc]2 | %10
 x2 !3![FG]2 [FG]2 | x6 | x2 [GB]2 [GB]2 | x2 [Gc]2 [Gc]2 | x2 !3![FA]2 [FA]2 | x6 :| %16

